X: 810
T: Polska efter Lo Margit
T: Variant
R: Polska
Z: Håkan Lidén, 2010-06-03
O: Delsbo, Hälsingland
S: efter Margit Lo
S: efter Erik Ljung
M: 3/4
L: 1/8
K: D
|:A>A dd fa | a/g/f/g/ e2 ce | g/f/e/f/ dd Bd |1 d<c A4 :|2 d<c A3 =c ||[K: Ddor]
|: c>B GG Bd | d/^c/B/c/ AD ^FA | d>B GG Be | d<^c A3 A:| A^c de f/e/f/g/ | a^c d4 |]
(:musicend:)

(:music:)
